epam-assets/icon-sources/18/action-lock-fill.svg

<svg width="18" height="18" viewBox="0 0 18 18" fill="none" xmlns="http://www.w3.org/2000/svg">
<g id="18/action-lock-fill">
<path id="icon" fill-rule="evenodd" clip-rule="evenodd" d="M9 13.5C9.82843 13.5 10.5 12.8284 10.5 12C10.5 11.1675 9.825 10.5 9 10.5C8.17157 10.5 7.5 11.1716 7.5 12C7.5 12.8284 8.17157 13.5 9 13.5ZM5.25 6.75V5.25C5.25 3.17893 6.92893 1.5 9 1.5C11.0711 1.5 12.75 3.17893 12.75 5.25V6.75H13.5C14.3284 6.75 15 7.42157 15 8.25V15.75C15 16.5784 14.3284 17.25 13.5 17.25H4.5C3.67157 17.25 3 16.5784 3 15.75V8.25C3 7.4175 3.675 6.75 4.5 6.75H5.25ZM6.75 6.75H11.25V5.25C11.25 4.00736 10.2426 3 9 3C7.75736 3 6.75 4.00736 6.75 5.25V6.75Z" fill="#6C6F80"/>
</g>
</svg>

<svg xmlns="http://www.w3.org/2000/svg" width="18" height="18" fill="none" viewBox="0 0 18 18">
  <path fill="#6C6F80" fill-rule="evenodd" d="M9 13.5a1.5 1.5 0 1 0 0-3 1.5 1.5 0 0 0 0 3ZM5.25 6.75v-1.5a3.75 3.75 0 1 1 7.5 0v1.5h.75a1.5 1.5 0 0 1 1.5 1.5v7.5a1.5 1.5 0 0 1-1.5 1.5h-9a1.5 1.5 0 0 1-1.5-1.5v-7.5a1.5 1.5 0 0 1 1.5-1.5h.75Zm1.5 0h4.5v-1.5a2.25 2.25 0 0 0-4.5 0v1.5Z" clip-rule="evenodd"/>
</svg>
